assets/static/images/leaf1.svg

<svg width="209" height="183" viewBox="0 0 209 183" fill="none" xmlns="http://www.w3.org/2000/svg">
<path d="M65.6024 40.5561C34.1023 81.056 45.1023 98.056 11.1023 129.056C11.1023 129.056 89.7463 145.165 129.102 108.056C168.458 70.947 196.602 4.556 196.602 4.556C182.471 1.39985 97.1024 0.0561194 65.6024 40.5561Z" fill="#297A36"/>
<path d="M75.7207 108.676C65.896 137.55 76.5287 148.404 76.2621 182.037C76.2621 182.037 124.334 159.634 136.258 127.021C148.183 94.4078 129.838 56.0078 129.838 56.0078C120.884 57.3614 85.5453 79.8025 75.7207 108.676Z" fill="#369B46"/>
</svg>

<?xml version="1.0" encoding="UTF-8"?>
<svg viewBox="0 0 209 183" xmlns="http://www.w3.org/2000/svg">
<path d="m65.602 40.556c-31.5 40.5-20.5 57.5-54.5 88.5 0 0 78.644 16.109 118-21 39.356-37.109 67.5-103.5 67.5-103.5-14.131-3.1562-99.5-4.4999-131 36z" fill="#297A36"/>
<path d="m75.721 108.68c-9.8247 28.874 0.808 39.728 0.5414 73.361 0 0 48.072-22.403 59.996-55.016 11.925-32.613-6.42-71.013-6.42-71.013-8.954 1.3536-44.293 23.795-54.117 52.668z" fill="#369B46"/>
</svg>
